X: 14
T: O virgo miserere mei
N: Derived from Tin2004-O_virgo_miserere_mei.krn
C: Johannes Tinctoris
%%abc-version 2.0
%%abcx-abcm2ps-target-version 5.9.1 (29 Sep 2008)
%%abc-creator hum2abc beta
%%abcx-conversion-date 2019/02/17 07:34:55
%%abc-edited-by Jesse Rodin
%%abc-edited-by Chris Gage 01-29-2015
%%abcx-initial-encoding-date 2015/02/21/
%%humdrum-veritas 2988734162
%%humdrum-veritas-data 2520215965
%%linebreak <none>
%%barnumbers 0
L: 1/4
M: 2/1
Q: 1/2=120
V: 1 clef=treble
V: 2 clef=treble-8
V: 3 clef=bass
K: C
[V:1] A8 | 
[V:2] A8 | 
[V:3] A,6G,F, | 
[V:1] G6FE | 
[V:2] B4c4 | 
[V:3] G,F,E,D,C,4 | 
[V:1] F4E4 | 
[V:2] A2d4^c2 | 
[V:3] D,4A,,4 | 
[V:1] z2D3CB,2 | 
[V:2] d4z2d2 | 
[V:3] D,4D,4 | 
[V:1] A,2C3DE2- | 
[V:2] e4A4 | 
[V:3] A,,2A,3B,C2 | 
[V:1] E2DCD4 | 
[V:2] G2FEF4 | 
[V:3] B,2A,G,A,4 | 
[V:1] E4z2E2 | 
[V:2] z2E3FG2 | 
[V:3] G,2G,3F,E,2 | 
[V:1] F3GA2A2- | 
[V:2] A2D4f2- | 
[V:3] D,4z2D,2- | 
[V:1] AGF2E3D | 
[V:2] fed2^c3B | 
[V:3] D,E,F,G,A,4 | 
[V:1] D2F3GA2- | 
[V:2] d3cA3B | 
[V:3] D,3E,F,3G, | 
[V:1] AG_B3AG2- | 
[V:2] c2d2G3A | 
[V:3] A,2G,2D4 | 
[V:1] G2^FEF4 | 
[V:2] _B2AGA4 | 
[V:3] G,4D,4 | 
[V:1] G4z2G2 | 
[V:2] z2G3FE2 | 
[V:3] G,2C,3D,E,2 | 
[V:1] A3Bc2A2- | 
[V:2] D2F3EFG | 
[V:3] F,3G,A,4 | 
[V:1] AGF2E4 | 
[V:2] A6c2- | 
[V:3] D,3C,A,,4 | 
[V:1] (3A,4C6D2 | 
[V:2] c2A3GF2 | 
[V:3] z8 | 
[V:1] (3E4F6E2 | 
[V:2] (3G4D6E2 | 
[V:3] (3C,4_B,,6C,2 | 
[V:1] (3D6_B,2C4 | 
[V:2] (3F4G4A4 | 
[V:3] (3D,4_B,,4A,,4 | 
[V:1] D4G4- | 
[V:2] _B8 | 
[V:3] G,,8 | 
[V:1] G2FGA4- | 
[V:2] c8 | 
[V:3] C,4F,4 | 
[V:1] A2GA_BAGF | 
[V:2] d8 | 
[V:3] D,8 | 
[V:1] E6F2 | 
[V:2] c6d2 | 
[V:3] A,,2A,4B,2 | 
[V:1] G2ABc2B2- | 
[V:2] e4A2d2- | 
[V:3] C4F,2G,2- | 
[V:1] BEA4^G2 | 
[V:2] dcA2B4 | 
[V:3] G,A,F,2E,4 | 
[V:1] A8 | 
[V:2] z2A4F2 | 
[V:3] A,,4D,4 | 
[V:1] G6F2- | 
[V:2] G2E4D2 | 
[V:3] E,2C,4D,2 | 
[V:1] F2G2E4 | 
[V:2] d2B2c4 | 
[V:3] _B,,2G,,2A,,4 | 
[V:1] D4z4 | 
[V:2] d2B3AG2- | 
[V:3] z4G,,4- | 
[V:1] D6C2- | 
[V:2] GFG4E2- | 
[V:3] G,,2G,,4A,,2- | 
[V:1] C2D2B,4 | 
[V:2] E2F2G4 | 
[V:3] A,,2D,2G,,4 | 
[V:1] A,6C2- | 
[V:2] A2c3BA2- | 
[V:3] z4F,4- | 
[V:1] C2D2E4- | 
[V:2] AGF2E3F | 
[V:3] F,2D,2C,3D, | 
[V:1] E2F4E2 | 
[V:2] G2A2F2G2- | 
[V:3] E,2D,4C,2- | 
[V:1] G6FG | 
[V:2] GAB4c2 | 
[V:3] C,2G,4C,2 | 
[V:1] A6GF | 
[V:2] A2c4BA | 
[V:3] F,6G,2 | 
[V:1] GFED^C3B, | 
[V:2] BAGFE4 | 
[V:3] E,4A,,4 | 
[V:1] D6F2- | 
[V:2] z2D2F3G | 
[V:3] D,2F,3G,A,B, | 
[V:1] F2G2A4- | 
[V:2] A2_B2A2c2- | 
[V:3] A,2G,2F,4- | 
[V:1] A2GFG4 | 
[V:2] cBcde4 | 
[V:3] F,2E,D,C,2E,2- | 
[V:1] GFEDE4 | 
[V:2] E3FG2AB | 
[V:3] E,F,G,6 | 
[V:1] A,6B,2 | 
[V:2] c2F4G2 | 
[V:3] F,2D,3C,B,,2 | 
[V:1] C2D4^C2 | 
[V:2] A2F2E4 | 
[V:3] A,,2D,2A,,4 | 
[V:1] D4z2D2 | 
[V:2] D2d4B2 | 
[V:3] z4D,4 | 
[V:1] EFGAB2c2- | 
[V:2] c4d2e2- | 
[V:3] C,4B,,2A,,2- | 
[V:1] cBA4^G2 | 
[V:2] edc2B4 | 
[V:3] A,,4E,4 | 
[V:1] A8 |]  
[V:2] A8 |]  
[V:3] A,,8 |]  



